X: 2
T: Her Golden Hair Was Curling Down
M: 4/4
L: 1/8
R: hornpipe
K: D Major
|: Ac |\
dfed BAFA | dfed B2 de | fAAf edBd | e2 ed e2 Ac |
d2 fd BAFA | dfed B2 de | fAAf edBc | d2 dc d2- :|
|: dB |\
A2 de fgfe | dcdB A3 F | GFGA BcdB |e2 ed e2 Ac |
d2 fd BAFA | dfed B2 de | fAAf edBc | d2 d2 d2- :|
